;FLAVOR:Marlin
;TIME:3672
;Filament used: 4.97971m
;Layer height: 0.28
;MINX:62.152
;MINY:35.615
;MINZ:0.28
;MAXX:141.152
;MAXY:134.615
;MAXZ:33.88
;TARGET_MACHINE.NAME:Creality Ender-3 V3 KE
;Generated with Cura_SteamEngine 5.9.0
M140 S60
M105
M190 S60
M82 ;absolute extrusion mode
M220 S100 ;Reset Feedrate
M221 S100 ;Reset Flowrate

G28 ;Home
G29 :auto leveling
G92 E0 ;Reset Extruder
G1 Z2.0 F3000 ;Move Z Axis up
G1 X-2.0 Y20 Z0.28 F5000.0 ;Move to start position
M109 S200
G1 X-2.0 Y145.0 Z0.28 F1500.0 E15 ;Draw the first line
G1 X-1.7 Y145.0 Z0.28 F5000.0 ;Move to side a little
G1 X-1.7 Y20 Z0.28 F1500.0 E30 ;Draw the second line
G92 E0 ;Reset Extruder
G1 E-1 F1800 ;Retract a bit
G1 Z2.0 F3000 ;Move Z Axis up
G1 E0 F1800
G92 E0
G92 E0
G1 F2400 E-0.8
;LAYER_COUNT:121
;LAYER:0
M107
G0 F9000 X63.044 Y127.922 Z0.28
;TYPE:SKIRT
G1 F2400 E0
G1 F6000 X62.702 Y127.01 E0.04535
G1 X62.442 Y126.072 E0.09068
G1 X62.264 Y125.103 E0.13655
G1 X62.166 Y123.924 E0.19164
G1 X62.152 Y123.273 E0.22196
G1 X62.153 Y104.165 E1.11171
G1 X62.165 Y103.428 E1.14603
G1 X62.224 Y102.456 E1.19138
G1 X62.37 Y101.493 E1.23673
G1 X62.601 Y100.546 E1.28212
G1 X62.914 Y99.625 E1.32741
G1 X63.308 Y98.733 E1.37282
G1 X63.779 Y97.88 E1.41819
G1 X64.312 Y97.088 E1.46265
G1 X64.61 Y96.701 E1.48539
G1 X66.45 Y94.426 E1.62163
G1 X67.982 Y92.415 E1.73935
G1 X69.449 Y90.37 E1.85654
G1 X70.86 Y88.283 E1.97385
G1 X72.21 Y86.154 E2.09123
G1 X73.501 Y83.988 E2.20865
G1 X74.715 Y81.817 E2.32447
G1 X75.894 Y79.558 E2.44312
G1 X76.992 Y77.299 E2.56008
G1 X78.032 Y75 E2.67758
G1 X79.001 Y72.683 E2.79452
G1 X79.917 Y70.304 E2.91322
G1 X80.746 Y67.957 E3.02913
G1 X81.511 Y65.574 E3.14567
G1 X82.226 Y63.115 E3.26491
G1 X82.857 Y60.69 E3.38159
G1 X83.411 Y58.281 E3.49669
G1 X83.922 Y55.736 E3.61756
G1 X84.34 Y53.299 E3.73269
G1 X84.691 Y50.836 E3.84854
G1 X84.975 Y48.328 E3.96607
G1 X85.204 Y45.655 E4.09099
G1 X85.32 Y44.759 E4.13306
G1 X85.548 Y43.738 E4.18177
G1 X85.844 Y42.809 E4.22718
G1 X86.222 Y41.912 E4.2725
G1 X86.678 Y41.051 E4.31787
G1 X87.208 Y40.235 E4.36318
G1 X87.808 Y39.468 E4.40852
G1 X88.474 Y38.757 E4.45388
G1 X89.2 Y38.108 E4.49923
G1 X89.981 Y37.525 E4.54461
G1 X90.809 Y37.015 E4.58989
G1 X91.681 Y36.578 E4.63531
G1 X92.586 Y36.223 E4.68058
G1 X93.52 Y35.946 E4.72594
G1 X94.405 Y35.766 E4.76799
G1 X95.857 Y35.628 E4.83591
G1 X96.464 Y35.615 E4.86418
G1 X129.456 Y35.615 E6.40042
G1 X130.336 Y35.628 E6.4414
G1 X131.308 Y35.687 E6.48675
G1 X132.271 Y35.833 E6.5321
G1 X133.218 Y36.064 E6.57749
G1 X134.106 Y36.364 E6.62114
G1 X134.998 Y36.754 E6.66647
G1 X135.881 Y37.241 E6.71342
G1 X136.632 Y37.743 E6.75549
G1 X137.447 Y38.401 E6.80426
G1 X138.145 Y39.079 E6.84957
G1 X138.781 Y39.816 E6.8949
G1 X139.351 Y40.606 E6.94026
G1 X139.813 Y41.382 E6.98231
G1 X140.267 Y42.324 E7.03101
G1 X140.596 Y43.202 E7.07467
G1 X140.865 Y44.174 E7.12163
G1 X141.042 Y45.14 E7.16736
G1 X141.137 Y46.27 E7.22016
G1 X141.152 Y46.945 E7.2516
G1 X141.151 Y123.015 E10.79374
G1 X141.14 Y123.778 E10.82927
G1 X141.083 Y124.751 E10.87465
G1 X140.938 Y125.714 E10.92
G1 X140.709 Y126.66 E10.96532
G1 X140.398 Y127.584 E11.01072
G1 X140.006 Y128.475 E11.05605
G1 X139.538 Y129.327 E11.10131
G1 X139.016 Y130.108 E11.14505
G1 X138.383 Y130.893 E11.19201
G1 X137.758 Y131.544 E11.23403
G1 X136.969 Y132.232 E11.28278
G1 X136.209 Y132.782 E11.32646
G1 X135.342 Y133.299 E11.37346
G1 X134.464 Y133.721 E11.41882
G1 X133.553 Y134.063 E11.46413
G1 X132.614 Y134.324 E11.50952
G1 X131.648 Y134.502 E11.55525
G1 X130.497 Y134.6 E11.60904
G1 X129.822 Y134.615 E11.64048
G1 X73.716 Y134.614 E14.25301
G1 X72.983 Y134.603 E14.28715
G1 X72.011 Y134.546 E14.33249
G1 X71.048 Y134.4 E14.37784
G1 X70.102 Y134.171 E14.42316
G1 X69.178 Y133.859 E14.46857
G1 X68.288 Y133.467 E14.51386
G1 X67.465 Y133.016 E14.55756
G1 X66.626 Y132.455 E14.60455
G1 X65.922 Y131.889 E14.64661
G1 X65.169 Y131.164 E14.69529
G1 X64.532 Y130.428 E14.74061
G1 X64.002 Y129.697 E14.78266
G1 X63.466 Y128.8 E14.83131
G1 X63.044 Y127.922 E14.87667
G0 F9000 X63.826 Y128.626
G1 F6000 X63.418 Y127.781 E14.92037
G1 X63.087 Y126.903 E14.96406
G1 X62.835 Y125.999 E15.00776
G1 X62.663 Y125.07 E15.05175
G1 X62.565 Y123.891 E15.10684
G1 X62.552 Y123.273 E15.13562
G1 X62.553 Y104.171 E16.02509
G1 X62.564 Y103.452 E16.05858
G1 X62.62 Y102.515 E16.10228
G1 X62.759 Y101.587 E16.14598
G1 X62.98 Y100.674 E16.18972
G1 X63.28 Y99.786 E16.23336
G1 X63.658 Y98.926 E16.27711
G1 X64.111 Y98.103 E16.32085
G1 X64.629 Y97.332 E16.3641
G1 X64.921 Y96.953 E16.38638
G1 X66.761 Y94.678 E16.52262
G1 X68.307 Y92.648 E16.64144
G1 X69.774 Y90.603 E16.75863
G1 X71.198 Y88.497 E16.87701
G1 X72.554 Y86.359 E16.9949
G1 X73.845 Y84.193 E17.11231
G1 X75.07 Y82.002 E17.2292
G1 X76.249 Y79.743 E17.34785
G1 X77.352 Y77.474 E17.46533
G1 X78.396 Y75.165 E17.58332
G1 X79.37 Y72.837 E17.70083
G1 X80.29 Y70.448 E17.82004
G1 X81.123 Y68.09 E17.93648
G1 X81.892 Y65.696 E18.05357
G1 X82.61 Y63.227 E18.1733
G1 X83.244 Y60.791 E18.29051
G1 X83.801 Y58.371 E18.40614
G1 X84.314 Y55.815 E18.52753
G1 X84.734 Y53.367 E18.64318
G1 X85.087 Y50.893 E18.75955
G1 X85.374 Y48.362 E18.87816
G1 X85.601 Y45.706 E19.00229
G1 X85.717 Y44.81 E19.04436
G1 X85.929 Y43.859 E19.08972
G1 X86.213 Y42.964 E19.13345
G1 X86.576 Y42.099 E19.17713
G1 X87.014 Y41.268 E19.22087
G1 X87.523 Y40.481 E19.26451
G1 X88.1 Y39.741 E19.30821
G1 X88.741 Y39.055 E19.35192
G1 X89.44 Y38.428 E19.39565
G1 X90.191 Y37.865 E19.43935
G1 X90.989 Y37.372 E19.48303
G1 X91.828 Y36.95 E19.52676
G1 X92.7 Y36.606 E19.57041
G1 X93.6 Y36.338 E19.61414
G1 X94.485 Y36.158 E19.65619
G1 X95.866 Y36.028 E19.72078
G1 X96.473 Y36.015 E19.74905
G1 X129.45 Y36.015 E21.2846
G1 X130.312 Y36.027 E21.32474
G1 X131.249 Y36.083 E21.36845
G1 X132.177 Y36.222 E21.41214
G1 X133.09 Y36.443 E21.45588
G1 X133.946 Y36.731 E21.49794
G1 X134.838 Y37.121 E21.54327
G1 X135.659 Y37.574 E21.58693
G1 X136.41 Y38.076 E21.62899
G1 X137.169 Y38.688 E21.67439
G1 X137.843 Y39.341 E21.71809
G1 X138.457 Y40.05 E21.76177
G1 X139.007 Y40.811 E21.80549
G1 X139.469 Y41.587 E21.84754
G1 X139.892 Y42.464 E21.89288
G1 X140.221 Y43.342 E21.93654
G1 X140.472 Y44.247 E21.98027
G1 X140.643 Y45.174 E22.02416
G1 X140.738 Y46.304 E22.07697
G1 X140.752 Y46.945 E22.10682
G1 X140.751 Y123.01 E25.64873
G1 X140.741 Y123.755 E25.68342
G1 X140.687 Y124.692 E25.72712
G1 X140.549 Y125.621 E25.77085
G1 X140.33 Y126.533 E25.81453
G1 X140.032 Y127.423 E25.85823
G1 X139.655 Y128.283 E25.90196
G1 X139.205 Y129.105 E25.94559
G1 X138.683 Y129.886 E25.98933
G1 X138.094 Y130.616 E26.03301
G1 X137.469 Y131.267 E26.07503
G1 X136.734 Y131.908 E26.12044
G1 X135.974 Y132.458 E26.16413
G1 X135.168 Y132.939 E26.20783
G1 X134.323 Y133.347 E26.25153
G1 X133.445 Y133.678 E26.29522
G1 X132.541 Y133.931 E26.33893
G1 X131.614 Y134.103 E26.38283
G1 X130.463 Y134.201 E26.43662
G1 X129.822 Y134.215 E26.46648
G1 X73.722 Y134.214 E29.07873
G1 X73.006 Y134.204 E29.11207
G1 X72.07 Y134.15 E29.15573
G1 X71.141 Y134.011 E29.19947
G1 X70.229 Y133.792 E29.24314
G1 X69.339 Y133.493 E29.28686
G1 X68.48 Y133.116 E29.33054
G1 X67.657 Y132.665 E29.37424
G1 X66.877 Y132.143 E29.41794
G1 X66.173 Y131.577 E29.46
G1 X65.471 Y130.902 E29.50535
G1 X64.856 Y130.193 E29.54906
G1 X64.326 Y129.462 E29.5911
G1 X63.826 Y128.626 E29.63646
G0 F9000 X64.65 Y129.227
G1 F6000 X64.186 Y128.452 E29.67852
G1 X63.792 Y127.639 E29.72059
G1 X63.472 Y126.795 E29.76262
G1 X63.228 Y125.925 E29.80469
G1 X63.062 Y125.037 E29.84676
G1 X62.965 Y123.882 E29.90073
G1 X62.952 Y123.273 E29.92909
G1 X62.953 Y104.177 E30.81828
G1 X62.963 Y103.475 E30.85097
G1 X63.016 Y102.573 E30.89304
G1 X63.148 Y101.68 E30.93508
G1 X63.359 Y100.802 E30.97713
G1 X63.647 Y99.946 E31.01918
G1 X64.009 Y99.118 E31.06126
G1 X64.443 Y98.326 E31.10331
G1 X64.946 Y97.576 E31.14536
G1 X65.232 Y97.205 E31.16717
G1 X67.072 Y94.93 E31.30342
G1 X68.632 Y92.881 E31.42333
G1 X70.099 Y90.836 E31.54053
G1 X71.536 Y88.711 E31.65998
G1 X72.898 Y86.564 E31.77837
G1 X74.189 Y84.398 E31.89578
G1 X75.425 Y82.187 E32.01373
G1 X76.604 Y79.928 E32.13238
G1 X77.712 Y77.649 E32.25038
G1 X78.76 Y75.33 E32.36888
G1 X79.739 Y72.991 E32.48695
G1 X80.663 Y70.592 E32.60665
G1 X81.5 Y68.223 E32.72365
G1 X82.273 Y65.818 E32.84128
G1 X82.994 Y63.339 E32.96149
G1 X83.631 Y60.892 E33.07923
G1 X84.191 Y58.461 E33.19539
G1 X84.706 Y55.894 E33.31731
G1 X85.128 Y53.435 E33.43348
G1 X85.483 Y50.95 E33.55037
G1 X85.773 Y48.396 E33.67006
G1 X85.998 Y45.757 E33.79339
G1 X86.114 Y44.861 E33.83546
G1 X86.31 Y43.979 E33.87753
G1 X86.582 Y43.118 E33.91957
G1 X86.93 Y42.285 E33.96161
G1 X87.35 Y41.485 E34.00368
G1 X87.839 Y40.726 E34.04572
G1 X88.393 Y40.013 E34.08777
G1 X89.008 Y39.352 E34.12981
G1 X89.68 Y38.748 E34.17188
G1 X90.402 Y38.205 E34.21395
G1 X91.169 Y37.729 E34.25598
G1 X91.975 Y37.322 E34.29803
G1 X92.815 Y36.989 E34.3401
G1 X93.68 Y36.73 E34.38215
G1 X94.565 Y36.55 E34.4242
G1 X95.875 Y36.428 E34.48546
G1 X96.482 Y36.415 E34.51373
G1 X129.445 Y36.415 E36.04863
G1 X130.289 Y36.426 E36.08793
G1 X131.191 Y36.479 E36.13
G1 X132.084 Y36.611 E36.17204
G1 X132.962 Y36.822 E36.21409
G1 X133.818 Y37.11 E36.25614
G1 X134.645 Y37.472 E36.29818
G1 X135.437 Y37.907 E36.34025
G1 X136.188 Y38.409 E36.38231
G1 X136.891 Y38.976 E36.42437
G1 X137.541 Y39.603 E36.46642
G1 X138.133 Y40.285 E36.50847
G1 X138.663 Y41.016 E36.55052
G1 X139.125 Y41.792 E36.59257
G1 X139.518 Y42.605 E36.63462
G1 X139.836 Y43.45 E36.67666
G1 X140.079 Y44.32 E36.71872
G1 X140.244 Y45.208 E36.76078
G1 X140.339 Y46.338 E36.81358
G1 X140.352 Y46.945 E36.84185
G1 X140.351 Y123.005 E40.38352
G1 X140.342 Y123.732 E40.41738
G1 X140.291 Y124.634 E40.45945
G1 X140.16 Y125.528 E40.50152
G1 X139.951 Y126.406 E40.54355
G1 X139.665 Y127.263 E40.58561
G1 X139.304 Y128.091 E40.62767
G1 X138.872 Y128.883 E40.66968
G1 X138.371 Y129.635 E40.71176
G1 X137.805 Y130.339 E40.75382
G1 X137.18 Y130.99 E40.79584
G1 X136.499 Y131.584 E40.83792
G1 X135.768 Y132.115 E40.87999
G1 X134.994 Y132.579 E40.92201
G1 X134.181 Y132.973 E40.96408
G1 X133.337 Y133.293 E41.00611
G1 X132.467 Y133.538 E41.0482
G1 X131.58 Y133.704 E41.09022
G1 X130.429 Y133.802 E41.14401
G1 X129.822 Y133.815 E41.17228
G1 X73.727 Y133.814 E43.7843
G1 X73.029 Y133.805 E43.8168
G1 X72.128 Y133.754 E43.85882
G1 X71.234 Y133.622 E43.9009
G1 X70.356 Y133.413 E43.94293
G1 X69.499 Y133.126 E43.98501
G1 X68.672 Y132.765 E44.02703
G1 X67.879 Y132.332 E44.0691
G1 X67.128 Y131.831 E44.11114
G1 X66.424 Y131.265 E44.1532
G1 X65.773 Y130.639 E44.19525
G1 X65.18 Y129.958 E44.2373
G1 X64.65 Y129.227 E44.27934
G1 F2400 E43.47934
;MESH:?????????1
G0 F9000 X103.997 Y123.012
;TYPE:WALL-INNER
G1 F2400 E44.27934
G1 F6000 X129.552 Y123.012 E45.46929
G1 X129.552 Y47.212 E48.99886
G1 X96.752 Y47.212 E50.52616
G1 X96.752 Y53.012 E50.79623
G1 X126.235 Y53.017 E52.16909
G1 X126.394 Y53.062 E52.17678
G1 X126.561 Y53.172 E52.18609
G1 X126.699 Y53.362 E52.19703
G1 X126.752 Y53.612 E52.20893
G1 X126.752 Y93.689 E54.07508
G1 X126.706 Y93.843 E54.08256
G1 X126.587 Y94.026 E54.09273
G1 X126.435 Y94.142 E54.10163
G1 X126.246 Y94.212 E54.11102
G1 X96.753 Y94.213 E55.48433
G1 X96.752 Y103.635 E55.92306
G1 X96.724 Y103.794 E55.93058
G1 X96.634 Y103.971 E55.93983
G1 X96.408 Y104.156 E55.95343
G1 X96.197 Y104.211 E55.96358
G1 X73.752 Y104.212 E57.00871
G1 X73.752 Y123.012 E57.88412
G1 X103.997 Y123.012 E59.29245
G1 F2400 E58.49245
G0 F9000 X113.47 Y121.208
G1 F2400 E59.29245
G1 F6000 X112.443 Y121.172 E59.3403
G1 X111.53 Y121.016 E59.38343
G1 X110.484 Y120.689 E59.43446
G1 X109.565 Y120.259 E59.48171
G1 X108.773 Y119.755 E59.52542
G1 X107.939 Y119.048 E59.57633
G1 X107.311 Y118.356 E59.61985
G1 X106.695 Y117.458 E59.67055
G1 X106.271 Y116.614 E59.71453
G1 X105.933 Y115.658 E59.76175
G1 X105.713 Y114.587 E59.81266
G1 X105.652 Y113.593 E59.85903
G1 X105.717 Y112.601 E59.90532
G1 X105.921 Y111.609 E59.95248
G1 X106.271 Y110.614 E60.0016
G1 X106.715 Y109.734 E60.04749
G1 X107.285 Y108.904 E60.09438
G1 X107.953 Y108.161 E60.1409
G1 X108.728 Y107.505 E60.18818
G1 X109.564 Y106.966 E60.2345
G1 X110.559 Y106.506 E60.28554
G1 X111.53 Y106.212 E60.33278
G1 X112.523 Y106.048 E60.37965
G1 X113.548 Y106.018 E60.42739
G1 X114.472 Y106.11 E60.47063
G1 X115.465 Y106.344 E60.51814
G1 X116.49 Y106.738 E60.56927
G1 X117.367 Y107.228 E60.61605
G1 X118.193 Y107.84 E60.66392
G1 X118.861 Y108.483 E60.70709
G1 X119.532 Y109.336 E60.75763
G1 X120.054 Y110.223 E60.80555
G1 X120.443 Y111.159 E60.85275
G1 X120.691 Y112.055 E60.89604
G1 X120.831 Y113.064 E60.94347
G1 X120.831 Y114.16 E60.99451
G1 X120.704 Y115.112 E61.03923
G1 X120.443 Y116.065 E61.08524
G1 X120.016 Y117.076 E61.13634
G1 X119.532 Y117.888 E61.18036
G1 X118.861 Y118.74 E61.23086
G1 X118.193 Y119.385 E61.2741
G1 X117.3 Y120.043 E61.32575
G1 X116.418 Y120.52 E61.37244
G1 X115.541 Y120.86 E61.41624
G1 X114.516 Y121.108 E61.46534
G1 X113.47 Y121.208 E61.51427
G0 F9000 X113.482 Y120.808
;TYPE:WALL-OUTER
G1 F6000 X112.51 Y120.778 E61.55955
G1 X111.598 Y120.622 E61.60264
G1 X110.652 Y120.326 E61.64879
G1 X109.78 Y119.921 E61.69356
G1 X108.966 Y119.401 E61.73854
G1 X108.235 Y118.779 E61.78323
G1 X107.607 Y118.087 E61.82674
G1 X107.067 Y117.302 E61.87111
G1 X106.619 Y116.41 E61.91759
G1 X106.304 Y115.501 E61.96239
G1 X106.112 Y114.561 E62.00706
G1 X106.052 Y113.599 E62.05194
G1 X106.113 Y112.653 E62.09608
G1 X106.307 Y111.715 E62.14068
G1 X106.623 Y110.806 E62.1855
G1 X107.059 Y109.938 E62.23073
G1 X107.607 Y109.142 E62.27573
G1 X108.24 Y108.44 E62.31974
G1 X108.973 Y107.821 E62.36441
G1 X109.804 Y107.29 E62.41033
G1 X110.677 Y106.888 E62.45509
G1 X111.573 Y106.612 E62.49874
G1 X112.51 Y106.45 E62.54302
G1 X113.508 Y106.416 E62.58952
G1 X114.432 Y106.508 E62.63276
G1 X115.396 Y106.741 E62.67894
G1 X116.297 Y107.088 E62.7239
G1 X117.131 Y107.55 E62.76829
G1 X117.895 Y108.11 E62.8124
G1 X118.602 Y108.792 E62.85814
G1 X119.188 Y109.541 E62.90242
G1 X119.685 Y110.378 E62.94775
G1 X120.057 Y111.266 E62.99258
G1 X120.311 Y112.189 E63.03716
G1 X120.435 Y113.117 E63.08075
G1 X120.435 Y114.107 E63.12685
G1 X120.31 Y115.043 E63.17082
G1 X120.057 Y115.958 E63.21503
G1 X119.685 Y116.846 E63.25986
G1 X119.174 Y117.704 E63.30636
G1 X118.602 Y118.432 E63.34947
G1 X117.915 Y119.097 E63.39399
G1 X117.108 Y119.692 E63.44068
G1 X116.273 Y120.147 E63.48496
G1 X115.371 Y120.495 E63.52998
G1 X114.447 Y120.714 E63.57419
G1 X113.482 Y120.808 E63.61934
G1 F2400 E62.81934
G0 F9000 X104.022 Y123.412
G1 F2400 E63.61934
G1 F6000 X129.952 Y123.412 E64.82675
G1 X129.952 Y46.812 E68.39357
G1 X96.352 Y46.812 E69.95812
G1 X96.352 Y53.412 E70.26545
G1 X126.18 Y53.413 E71.65436
G1 X126.289 Y53.465 E71.65999
G1 X126.352 Y53.551 E71.66495
G1 X126.35 Y93.647 E73.53199
G1 X126.297 Y93.75 E73.53738
G1 X126.196 Y93.808 E73.54281
G1 X96.353 Y93.813 E74.93242
G1 X96.347 Y103.66 E75.39094
G1 X96.292 Y103.756 E75.39609
G1 X96.201 Y103.807 E75.40095
G1 X73.352 Y103.812 E76.46489
G1 X73.352 Y123.412 E77.37755
G1 X104.022 Y123.412 E78.80567
G1 F2400 E78.00567
G0 F9000 X113.45 Y121.564
;TYPE:SKIN
G1 F2400 E78.80567
G1 F6000 X114.583 Y121.462 E78.85865
G1 X115.594 Y121.223 E78.90702
G1 X116.67 Y120.799 E78.96087
G1 X117.558 Y120.303 E79.00823
G1 X118.42 Y119.661 E79.05828
G1 X119.166 Y118.94 E79.10659
G1 X119.77 Y118.172 E79.15209
G1 X120.348 Y117.22 E79.20395
G1 X120.745 Y116.282 E79.25137
G1 X121.058 Y115.167 E79.3053
G1 X121.195 Y114.155 E79.35285
G1 X121.195 Y113.065 E79.40361
G1 X121.059 Y112.041 E79.45171
G1 X120.753 Y110.964 E79.50384
G1 X120.365 Y110.034 E79.55077
G1 X119.762 Y109.04 E79.6049
G1 X119.17 Y108.284 E79.64961
G1 X118.399 Y107.539 E79.69954
G1 X117.583 Y106.938 E79.74673
G1 X116.591 Y106.384 E79.79963
G1 X115.575 Y106 E79.85021
G1 X114.555 Y105.756 E79.89904
G1 X113.499 Y105.656 E79.94843
G1 X112.425 Y105.69 E79.99847
G1 X111.365 Y105.879 E80.04861
G1 X110.4 Y106.176 E80.09562
G1 X109.415 Y106.631 E80.14614
G1 X108.505 Y107.217 E80.19654
G1 X107.706 Y107.899 E80.24546
G1 X107.007 Y108.669 E80.29388
G1 X106.399 Y109.551 E80.34376
G1 X105.92 Y110.509 E80.39364
G1 X105.571 Y111.514 E80.44318
G1 X105.357 Y112.551 E80.49248
G1 X105.292 Y113.575 E80.54026
